test_waco/assets/benefits/flexible_scheduler.svg

<svg fill="none" height="142" viewBox="0 0 153 142" width="153" xmlns="http://www.w3.org/2000/svg" xmlns:xlink="http://www.w3.org/1999/xlink"><filter id="a" color-interpolation-filters="sRGB" filterUnits="userSpaceOnUse" height="151.771" width="152.185" x=".114063" y="-10.1717"><feFlood flood-opacity="0" result="BackgroundImageFix"/><feColorMatrix in="SourceAlpha" result="hardAlpha" type="matrix" values="0 0 0 0 0 0 0 0 0 0 0 0 0 0 0 0 0 0 127 0"/><feMorphology in="SourceAlpha" operator="dilate" radius="2.9062" result="effect1_dropShadow"/><feOffset/><feGaussianBlur stdDeviation="3.63275"/><feColorMatrix type="matrix" values="0 0 0 0 0 0 0 0 0 1 0 0 0 0 0.407843 0 0 0 1 0"/><feBlend in2="BackgroundImageFix" mode="normal" result="effect1_dropShadow"/><feBlend in="SourceGraphic" in2="effect1_dropShadow" mode="normal" result="shape"/></filter><linearGradient id="b" gradientUnits="userSpaceOnUse" x1="10.2859" x2="142.126" y1="65.7179" y2="65.7179"><stop offset="0" stop-color="#8fff70"/><stop offset="1" stop-color="#8fffff"/></linearGradient><linearGradient id="c"><stop offset="0" stop-color="#8fff73"/><stop offset="1" stop-color="#8ffff9"/></linearGradient><linearGradient id="d" gradientUnits="userSpaceOnUse" x1="36.2858" x2="113.286" xlink:href="#c" y1="66.1754" y2="66.1754"/><linearGradient id="e" gradientUnits="userSpaceOnUse" x1="41.0983" x2="94.0367" xlink:href="#c" y1="60.5814" y2="60.5814"/><linearGradient id="f" gradientUnits="userSpaceOnUse" x1="53.1279" x2="108.473" xlink:href="#c" y1="73.1828" y2="73.1828"/><linearGradient id="g" gradientUnits="userSpaceOnUse" x1="95.2378" x2="100.051" xlink:href="#c" y1="42.5233" y2="42.5233"/><linearGradient id="h" gradientUnits="userSpaceOnUse" x1="73.5826" x2="75.9889" xlink:href="#c" y1="39.6856" y2="39.6856"/><linearGradient id="i" gradientUnits="userSpaceOnUse" x1="73.5826" x2="75.9889" xlink:href="#c" y1="91.42" y2="91.42"/><linearGradient id="j" gradientUnits="userSpaceOnUse" x1="45.9108" x2="51.9264" xlink:href="#c" y1="65.5211" y2="65.5211"/><linearGradient id="k" gradientUnits="userSpaceOnUse" x1="97.6451" x2="103.661" xlink:href="#c" y1="65.5211" y2="65.5211"/><linearGradient id="l" gradientUnits="userSpaceOnUse" x1="59.7466" x2="63.9578" xlink:href="#c" y1="43.1469" y2="43.1469"/><linearGradient id="m" gradientUnits="userSpaceOnUse" x1="85.6138" x2="89.8252" xlink:href="#c" y1="87.9502" y2="87.9502"/><linearGradient id="n" gradientUnits="userSpaceOnUse" x1="49.618" x2="55.1505" xlink:href="#c" y1="78.4706" y2="78.4706"/><linearGradient id="o" gradientUnits="userSpaceOnUse" x1="94.4211" x2="99.9536" xlink:href="#c" y1="52.6034" y2="52.6034"/><linearGradient id="p" gradientUnits="userSpaceOnUse" x1="85.6138" x2="89.8251" xlink:href="#c" y1="43.1468" y2="43.1468"/><linearGradient id="q" gradientUnits="userSpaceOnUse" x1="59.7466" x2="63.9579" xlink:href="#c" y1="87.9502" y2="87.9502"/><linearGradient id="r" gradientUnits="userSpaceOnUse" x1="94.4213" x2="99.9538" xlink:href="#c" y1="78.4705" y2="78.4705"/><linearGradient id="s" gradientUnits="userSpaceOnUse" x1="49.6179" x2="55.1504" xlink:href="#c" y1="52.6033" y2="52.6033"/><linearGradient id="t" gradientUnits="userSpaceOnUse" x1="71.1764" x2="84.3636" xlink:href="#c" y1="63.4449" y2="63.4449"/><clipPath id="u"><path d="m10.2858 0h131.841v131.427h-131.841z"/></clipPath><clipPath id="v"><path d="m36.2858 27h77v77h-77z"/></clipPath><g filter="url(#a)"><g clip-path="url(#u)"><path d="m77.9287 131.427c-.734 0-1.468-.018-2.2209-.056-8.5071-.471-16.4307-3.576-21.1736-8.319l-37.228-37.2468c-4.7053-4.7053-7.2649-12.3843-7.0014-21.0419.2635-8.3942 3.1995-16.2049 7.886-20.8726l15.0756-15.0756c.4329-.4329 1.1293-.4329 1.5622 0 .4328.4329.4328 1.1293 0 1.5621l-15.0757 15.0757c-4.2912 4.2912-6.9826 11.5373-7.2273 19.3668-.2446 7.9425 2.1268 15.1886 6.3427 19.4045l37.2468 37.2468c4.3665 4.367 11.7444 7.246 19.7245 7.679 8.0742.433 15.3579-1.769 19.4986-5.91l15.5278-15.527c.432-.433 1.129-.433 1.562 0s.433 1.129 0 1.562l-15.5277 15.527c-4.2347 4.273-11.0668 6.625-18.9716 6.625zm48.3513-36.87c-.282 0-.565-.113-.791-.32-.432-.4329-.432-1.1293 0-1.5621l7.548-7.5473c4.178-4.1783 6.756-11.0479 6.869-18.3505.132-7.5096-2.258-14.2663-6.531-18.5575l-39.0155-39.01601c-4.2724-4.27237-11.3868-6.8885-19.0281-6.9826-7.6225-.09411-14.6428 2.29616-18.7834 6.43679l-9.7493 9.74932c-.4329.4329-1.1292.4329-1.5621 0s-.4329-1.1293 0-1.5622l9.7493-9.74926c4.5358-4.55469 12.1584-7.208459 20.3643-7.09553261 8.3377.11292661 15.8285 2.89844261 20.5714 7.62251261l39.0164 39.01598c4.705 4.7053 7.321 12.0455 7.189 20.1573-.132 7.8672-2.955 15.3015-7.528 19.8939l-7.547 7.5472c-.207.207-.49.32-.772.32z" fill="url(#b)"/></g><g clip-path="url(#v)"><path d="m102.009 38.2763c-7.2714-7.2717-16.9395-11.2763-27.2232-11.2763s-19.9519 4.0046-27.2237 11.2763c-7.2719 7.2717-11.2763 16.94-11.2763 27.2237s4.0046 19.9519 11.2763 27.2237c7.2716 7.2718 16.94 11.2763 27.2237 11.2763s19.9518-4.0046 27.2232-11.2763c7.272-7.2717 11.277-16.94 11.277-27.2237s-4.005-19.9519-11.277-27.2237zm-1.701 52.7459c-6.8173 6.8172-15.8813 10.5718-25.5222 10.5718-9.641 0-18.705-3.7546-25.5222-10.5718s-10.5716-15.8813-10.5716-25.5222 3.7544-18.705 10.5716-25.5222 15.8812-10.5716 25.5222-10.5716c9.6409 0 18.7049 3.7544 25.5222 10.5716 6.817 6.8172 10.572 15.8813 10.572 25.5222s-3.755 18.705-10.572 25.5222z" fill="url(#d)"/><path d="m43.5045 65.5c0-17.2485 14.0328-31.2812 31.2813-31.2812 6.2213 0 12.2306 1.8213 17.3784 5.2672.552.3697 1.2993.2217 1.669-.3305.3697-.5521.2217-1.2994-.3306-1.6691-5.545-3.7119-12.0172-5.6739-18.7168-5.6739-8.9984 0-17.458 3.5041-23.8207 9.8668-6.3627 6.3628-9.8668 14.8224-9.8668 23.8207 0 8.3016 3.046 16.2771 8.577 22.4575.2377.2656.5667.4008.897.4008.2856 0 .5724-.101.8019-.3066.495-.4432.5373-1.2038.0941-1.6988-5.1354-5.7386-7.9638-13.1443-7.9638-20.8529z" fill="url(#e)"/><path d="m102.799 46.7834c-.369-.5522-1.117-.7002-1.669-.3305-.552.3696-.7 1.1169-.33 1.669 3.446 5.1476 5.267 11.1569 5.267 17.3781 0 17.2485-14.0328 31.2812-31.2813 31.2812-7.156 0-14.1511-2.4782-19.6965-6.9782-.516-.4187-1.2736-.3399-1.6923.1761s-.3399 1.2736.1761 1.6923c5.9728 4.8468 13.5063 7.5161 21.2127 7.5161 8.9984 0 17.458-3.5041 23.8207-9.8668 6.3626-6.3628 9.8666-14.8224 9.8666-23.8207 0-6.6995-1.962-13.1717-5.674-18.7166z" fill="url(#f)"/><path d="m95.6386 42.1827c.8089.7238 1.5888 1.4985 2.3181 2.3022.2375.2617.5638.3946.8914.3946.2883 0 .5778-.1032.8082-.3122.4917-.4465.5287-1.2075.0824-1.6996-.7851-.865-1.6247-1.6988-2.4955-2.4781-.495-.4431-1.2557-.401-1.6988.0941-.443.4951-.4011 1.2558.0942 1.699z" fill="url(#g)"/><path d="m74.7858 42.6406c.6644 0 1.2031-.5387 1.2031-1.2031v-3.6094c0-.6644-.5387-1.2031-1.2031-1.2031-.6645 0-1.2032.5387-1.2032 1.2031v3.6094c0 .6644.5387 1.2031 1.2032 1.2031z" fill="url(#h)"/><path d="m73.5826 89.5625v3.6094c0 .6644.5387 1.2031 1.2032 1.2031.6644 0 1.2031-.5387 1.2031-1.2031v-3.6094c0-.6644-.5387-1.2031-1.2031-1.2031-.6645 0-1.2032.5387-1.2032 1.2031z" fill="url(#i)"/><path d="m51.9264 65.5c0-.6644-.5387-1.2031-1.2031-1.2031h-3.6094c-.6644 0-1.2031.5387-1.2031 1.2031s.5387 1.2031 1.2031 1.2031h3.6094c.6644 0 1.2031-.5387 1.2031-1.2031z" fill="url(#j)"/><path d="m97.6451 65.5c0 .6644.5387 1.2031 1.2032 1.2031h3.6097c.664 0 1.203-.5387 1.203-1.2031s-.539-1.2031-1.203-1.2031h-3.6097c-.6645 0-1.2032.5387-1.2032 1.2031z" fill="url(#k)"/><path d="m63.7965 44.0597-1.8047-3.1259c-.3322-.5755-1.0681-.7724-1.6435-.4403-.5754.3322-.7726 1.0681-.4403 1.6435l1.8046 3.1258c.2229.3859.6273.6017 1.0432.6017.204 0 .411-.052.6005-.1613.5752-.3322.7724-1.0681.4402-1.6435z" fill="url(#l)"/><path d="m87.859 85.7371c-.3323-.5753-1.0683-.7722-1.6435-.4403-.5754.3322-.7726 1.0681-.4404 1.6435l1.8047 3.1258c.2229.3859.6273.6018 1.0431.6018.2041 0 .4111-.0521.6006-.1614.5753-.3322.7725-1.0681.4403-1.6435z" fill="url(#m)"/><path d="m50.8224 80.5392c.2041 0 .411-.052.6005-.1613l3.1259-1.8047c.5753-.3322.7725-1.0681.4403-1.6435s-1.0682-.7722-1.6435-.4403l-3.1258 1.8047c-.5754.3322-.7726 1.068-.4404 1.6434.2227.3859.6271.6017 1.043.6017z" fill="url(#n)"/><path d="m95.6255 54.6721c.2041 0 .411-.0521.6005-.1614l3.1259-1.8047c.5753-.3322.7721-1.0681.4403-1.6435-.3322-.5754-1.0681-.7722-1.6435-.4403l-3.1258 1.8047c-.5754.3322-.7726 1.068-.4404 1.6434.2229.3859.6273.6018 1.043.6018z" fill="url(#o)"/><path d="m89.2233 40.4935c-.5754-.3324-1.3113-.1352-1.6435.4404l-1.8047 3.1258c-.3322.5754-.135 1.3113.4404 1.6435.1895.1095.3963.1614.6005.1614.4158 0 .8202-.2159 1.0431-.6018l1.8047-3.1258c.3321-.5754.1349-1.3113-.4405-1.6435z" fill="url(#p)"/><path d="m63.3561 85.2968c-.5754-.3322-1.3112-.135-1.6435.4404l-1.8046 3.1258c-.3323.5754-.1351 1.3113.4403 1.6435.1895.1095.3963.1614.6005.1614.4158 0 .8202-.2159 1.0431-.6018l1.8047-3.1258c.3321-.5754.1349-1.3113-.4405-1.6435z" fill="url(#q)"/><path d="m95.0229 78.5731 3.1259 1.8047c.1895.1095.3963.1614.6005.1614.4159 0 .8203-.2158 1.0431-.6017.3326-.5754.1351-1.3113-.4403-1.6435l-3.1259-1.8047c-.5754-.3323-1.3112-.135-1.6435.4404s-.1352 1.3112.4402 1.6434z" fill="url(#r)"/><path d="m54.5486 52.4268-3.1258-1.8047c-.5754-.3323-1.3113-.135-1.6435.4404s-.1351 1.3112.4403 1.6434l3.1259 1.8047c.1895.1095.3963.1614.6005.1614.4159 0 .8203-.2158 1.0431-.6017.3321-.5754.1349-1.3113-.4405-1.6435z" fill="url(#s)"/><path d="m83.1613 81.2085c.2041 0 .411-.0521.6005-.1614.5754-.3322.7726-1.0681.4404-1.6435l-6.6744-11.5604c.5401-.6312.8673-1.4494.8673-2.3432 0-1.5684-1.0059-2.9058-2.4062-3.4024v-15.8476c0-.6644-.5387-1.2031-1.2031-1.2031-.6645 0-1.2032.5387-1.2032 1.2031v15.8476c-1.4002.4966-2.4062 1.834-2.4062 3.4024 0 1.9903 1.6191 3.6094 3.6094 3.6094.2251 0 .4453-.0218.6591-.0614l6.6735 11.5587c.2228.3859.6272.6018 1.0429.6018zm-9.5787-15.7085c0-.6634.5398-1.2031 1.2032-1.2031.6633 0 1.2031.5397 1.2031 1.2031s-.5398 1.2031-1.2031 1.2031c-.6634 0-1.2032-.5397-1.2032-1.2031z" fill="url(#t)"/></g></g></svg>

<svg width="153" height="142" viewBox="0 0 153 142" fill="none" xmlns="http://www.w3.org/2000/svg">
<g filter="url(#filter0_d)">
<g clip-path="url(#clip0)">
<path d="M77.9287 131.427C77.1947 131.427 76.4607 131.409 75.7078 131.371C67.2007 130.9 59.2771 127.795 54.5342 123.052L17.3062 85.8052C12.6009 81.0999 10.0413 73.4209 10.3048 64.7633C10.5683 56.3691 13.5043 48.5584 18.1908 43.8907L33.2664 28.8151C33.6993 28.3822 34.3957 28.3822 34.8286 28.8151C35.2614 29.248 35.2614 29.9444 34.8286 30.3772L19.7529 45.4529C15.4617 49.7441 12.7703 56.9902 12.5256 64.8197C12.281 72.7622 14.6524 80.0083 18.8683 84.2242L56.1151 121.471C60.4816 125.838 67.8595 128.717 75.8396 129.15C83.9138 129.583 91.1975 127.381 95.3382 123.24L110.866 107.713C111.298 107.28 111.995 107.28 112.428 107.713C112.861 108.146 112.861 108.842 112.428 109.275L96.9003 124.802C92.6656 129.075 85.8335 131.427 77.9287 131.427ZM126.28 94.557C125.998 94.557 125.715 94.444 125.489 94.237C125.057 93.8041 125.057 93.1077 125.489 92.6749L133.037 85.1276C137.215 80.9493 139.793 74.0797 139.906 66.7771C140.038 59.2675 137.648 52.5108 133.375 48.2196L94.3595 9.20359C90.0871 4.93122 82.9727 2.31509 75.3314 2.22099C67.7089 2.12688 60.6886 4.51715 56.548 8.65778L46.7987 18.4071C46.3658 18.84 45.6695 18.84 45.2366 18.4071C44.8037 17.9742 44.8037 17.2778 45.2366 16.8449L54.9859 7.09564C59.5217 2.54095 67.1443 -0.112819 75.3502 0.000107385C83.6879 0.113034 91.1787 2.89855 95.9216 7.62262L134.938 46.6386C139.643 51.3439 142.259 58.6841 142.127 66.7959C141.995 74.6631 139.172 82.0974 134.599 86.6898L127.052 94.237C126.845 94.444 126.562 94.557 126.28 94.557Z" fill="url(#paint0_linear)"/>
</g>
<g clip-path="url(#clip1)">
<path d="M102.009 38.2763C94.7376 31.0046 85.0695 27 74.7858 27C64.5021 27 54.8339 31.0046 47.5621 38.2763C40.2902 45.548 36.2858 55.2163 36.2858 65.5C36.2858 75.7837 40.2904 85.4519 47.5621 92.7237C54.8337 99.9955 64.5021 104 74.7858 104C85.0695 104 94.7376 99.9954 102.009 92.7237C109.281 85.452 113.286 75.7837 113.286 65.5C113.286 55.2163 109.281 45.5481 102.009 38.2763ZM100.308 91.0222C93.4907 97.8394 84.4267 101.594 74.7858 101.594C65.1448 101.594 56.0808 97.8394 49.2636 91.0222C42.4464 84.205 38.692 75.1409 38.692 65.5C38.692 55.8591 42.4464 46.795 49.2636 39.9778C56.0808 33.1606 65.1448 29.4062 74.7858 29.4062C84.4267 29.4062 93.4907 33.1606 100.308 39.9778C107.125 46.795 110.88 55.8591 110.88 65.5C110.88 75.1409 107.125 84.205 100.308 91.0222Z" fill="url(#paint1_linear)"/>
<path d="M43.5045 65.5C43.5045 48.2515 57.5373 34.2188 74.7858 34.2188C81.0071 34.2188 87.0164 36.0401 92.1642 39.486C92.7162 39.8557 93.4635 39.7077 93.8332 39.1555C94.2029 38.6034 94.0549 37.8561 93.5026 37.4864C87.9576 33.7745 81.4854 31.8125 74.7858 31.8125C65.7874 31.8125 57.3278 35.3166 50.9651 41.6793C44.6024 48.0421 41.0983 56.5017 41.0983 65.5C41.0983 73.8016 44.1443 81.7771 49.6753 87.9575C49.913 88.2231 50.242 88.3583 50.5723 88.3583C50.8579 88.3583 51.1447 88.2573 51.3742 88.0517C51.8692 87.6085 51.9115 86.8479 51.4683 86.3529C46.3329 80.6143 43.5045 73.2086 43.5045 65.5Z" fill="url(#paint2_linear)"/>
<path d="M102.799 46.7834C102.43 46.2312 101.682 46.0832 101.13 46.4529C100.578 46.8225 100.43 47.5698 100.8 48.1219C104.246 53.2695 106.067 59.2788 106.067 65.5C106.067 82.7485 92.0342 96.7812 74.7857 96.7812C67.6297 96.7812 60.6346 94.303 55.0892 89.803C54.5732 89.3843 53.8156 89.4631 53.3969 89.9791C52.9782 90.4951 53.057 91.2527 53.573 91.6714C59.5458 96.5182 67.0793 99.1875 74.7857 99.1875C83.7841 99.1875 92.2437 95.6834 98.6064 89.3207C104.969 82.9579 108.473 74.4983 108.473 65.5C108.473 58.8005 106.511 52.3283 102.799 46.7834Z" fill="url(#paint3_linear)"/>
<path d="M95.6386 42.1827C96.4475 42.9065 97.2274 43.6812 97.9567 44.4849C98.1942 44.7466 98.5205 44.8795 98.8481 44.8795C99.1364 44.8795 99.4259 44.7763 99.6563 44.5673C100.148 44.1208 100.185 43.3598 99.7387 42.8677C98.9536 42.0027 98.114 41.1689 97.2432 40.3896C96.7482 39.9465 95.9875 39.9886 95.5444 40.4837C95.1014 40.9788 95.1433 41.7395 95.6386 42.1827Z" fill="url(#paint4_linear)"/>
<path d="M74.7858 42.6406C75.4502 42.6406 75.9889 42.1019 75.9889 41.4375V37.8281C75.9889 37.1637 75.4502 36.625 74.7858 36.625C74.1213 36.625 73.5826 37.1637 73.5826 37.8281V41.4375C73.5826 42.1019 74.1213 42.6406 74.7858 42.6406Z" fill="url(#paint5_linear)"/>
<path d="M73.5826 89.5625V93.1719C73.5826 93.8363 74.1213 94.375 74.7858 94.375C75.4502 94.375 75.9889 93.8363 75.9889 93.1719V89.5625C75.9889 88.8981 75.4502 88.3594 74.7858 88.3594C74.1213 88.3594 73.5826 88.8981 73.5826 89.5625Z" fill="url(#paint6_linear)"/>
<path d="M51.9264 65.5C51.9264 64.8356 51.3877 64.2969 50.7233 64.2969H47.1139C46.4495 64.2969 45.9108 64.8356 45.9108 65.5C45.9108 66.1644 46.4495 66.7031 47.1139 66.7031H50.7233C51.3877 66.7031 51.9264 66.1644 51.9264 65.5Z" fill="url(#paint7_linear)"/>
<path d="M97.6451 65.5C97.6451 66.1644 98.1838 66.7031 98.8483 66.7031H102.458C103.122 66.7031 103.661 66.1644 103.661 65.5C103.661 64.8356 103.122 64.2969 102.458 64.2969H98.8483C98.1838 64.2969 97.6451 64.8356 97.6451 65.5Z" fill="url(#paint8_linear)"/>
<path d="M63.7965 44.0597L61.9918 40.9338C61.6596 40.3583 60.9237 40.1614 60.3483 40.4935C59.7729 40.8257 59.5757 41.5616 59.908 42.137L61.7126 45.2628C61.9355 45.6487 62.3399 45.8645 62.7558 45.8645C62.9598 45.8645 63.1668 45.8125 63.3563 45.7032C63.9315 45.371 64.1287 44.6351 63.7965 44.0597Z" fill="url(#paint9_linear)"/>
<path d="M87.859 85.7371C87.5267 85.1618 86.7907 84.9649 86.2155 85.2968C85.6401 85.629 85.4429 86.3649 85.7751 86.9403L87.5798 90.0661C87.8027 90.452 88.2071 90.6679 88.6229 90.6679C88.827 90.6679 89.034 90.6158 89.2235 90.5065C89.7988 90.1743 89.996 89.4384 89.6638 88.863L87.859 85.7371Z" fill="url(#paint10_linear)"/>
<path d="M50.8224 80.5392C51.0265 80.5392 51.2334 80.4872 51.4229 80.3779L54.5488 78.5732C55.1241 78.241 55.3213 77.5051 54.9891 76.9297C54.6569 76.3543 53.9209 76.1575 53.3456 76.4894L50.2198 78.2941C49.6444 78.6263 49.4472 79.3621 49.7794 79.9375C50.0021 80.3234 50.4065 80.5392 50.8224 80.5392Z" fill="url(#paint11_linear)"/>
<path d="M95.6255 54.6721C95.8296 54.6721 96.0365 54.62 96.226 54.5107L99.3519 52.706C99.9272 52.3738 100.124 51.6379 99.7922 51.0625C99.46 50.4871 98.7241 50.2903 98.1487 50.6222L95.0229 52.4269C94.4475 52.7591 94.2503 53.4949 94.5825 54.0703C94.8054 54.4562 95.2098 54.6721 95.6255 54.6721Z" fill="url(#paint12_linear)"/>
<path d="M89.2233 40.4935C88.6479 40.1611 87.912 40.3583 87.5798 40.9339L85.7751 44.0597C85.4429 44.6351 85.6401 45.371 86.2155 45.7032C86.405 45.8127 86.6118 45.8646 86.816 45.8646C87.2318 45.8646 87.6362 45.6487 87.8591 45.2628L89.6638 42.137C89.9959 41.5616 89.7987 40.8257 89.2233 40.4935Z" fill="url(#paint13_linear)"/>
<path d="M63.3561 85.2968C62.7807 84.9646 62.0449 85.1618 61.7126 85.7372L59.908 88.863C59.5757 89.4384 59.7729 90.1743 60.3483 90.5065C60.5378 90.616 60.7446 90.6679 60.9488 90.6679C61.3646 90.6679 61.769 90.452 61.9919 90.0661L63.7966 86.9403C64.1287 86.3649 63.9315 85.629 63.3561 85.2968Z" fill="url(#paint14_linear)"/>
<path d="M95.0229 78.5731L98.1488 80.3778C98.3383 80.4873 98.5451 80.5392 98.7493 80.5392C99.1652 80.5392 99.5696 80.3234 99.7924 79.9375C100.125 79.3621 99.9275 78.6262 99.3521 78.294L96.2262 76.4893C95.6508 76.157 94.915 76.3543 94.5827 76.9297C94.2504 77.5051 94.4475 78.2409 95.0229 78.5731Z" fill="url(#paint15_linear)"/>
<path d="M54.5486 52.4268L51.4228 50.6221C50.8474 50.2898 50.1115 50.4871 49.7793 51.0625C49.4471 51.6379 49.6442 52.3737 50.2196 52.7059L53.3455 54.5106C53.535 54.6201 53.7418 54.672 53.946 54.672C54.3619 54.672 54.7663 54.4562 54.9891 54.0703C55.3212 53.4949 55.124 52.759 54.5486 52.4268Z" fill="url(#paint16_linear)"/>
<path d="M83.1613 81.2085C83.3654 81.2085 83.5723 81.1564 83.7618 81.0471C84.3372 80.7149 84.5344 79.979 84.2022 79.4036L77.5278 67.8432C78.0679 67.212 78.3951 66.3938 78.3951 65.5C78.3951 63.9316 77.3892 62.5942 75.9889 62.0976V46.25C75.9889 45.5856 75.4502 45.0469 74.7858 45.0469C74.1213 45.0469 73.5826 45.5856 73.5826 46.25V62.0976C72.1824 62.5942 71.1764 63.9316 71.1764 65.5C71.1764 67.4903 72.7955 69.1094 74.7858 69.1094C75.0109 69.1094 75.2311 69.0876 75.4449 69.048L82.1184 80.6067C82.3412 80.9926 82.7456 81.2085 83.1613 81.2085ZM73.5826 65.5C73.5826 64.8366 74.1224 64.2969 74.7858 64.2969C75.4491 64.2969 75.9889 64.8366 75.9889 65.5C75.9889 66.1634 75.4491 66.7031 74.7858 66.7031C74.1224 66.7031 73.5826 66.1634 73.5826 65.5Z" fill="url(#paint17_linear)"/>
</g>
</g>
<defs>
<filter id="filter0_d" x="0.114063" y="-10.1717" width="152.185" height="151.771" filterUnits="userSpaceOnUse" color-interpolation-filters="sRGB">
<feFlood flood-opacity="0" result="BackgroundImageFix"/>
<feColorMatrix in="SourceAlpha" type="matrix" values="0 0 0 0 0 0 0 0 0 0 0 0 0 0 0 0 0 0 127 0" result="hardAlpha"/>
<feMorphology radius="2.9062" operator="dilate" in="SourceAlpha" result="effect1_dropShadow"/>
<feOffset/>
<feGaussianBlur stdDeviation="3.63275"/>
<feColorMatrix type="matrix" values="0 0 0 0 0 0 0 0 0 1 0 0 0 0 0.407843 0 0 0 1 0"/>
<feBlend mode="normal" in2="BackgroundImageFix" result="effect1_dropShadow"/>
<feBlend mode="normal" in="SourceGraphic" in2="effect1_dropShadow" result="shape"/>
</filter>
<linearGradient id="paint0_linear" x1="10.2859" y1="65.7179" x2="142.126" y2="65.7179" gradientUnits="userSpaceOnUse">
<stop stop-color="#8FFF70"/>
<stop offset="1" stop-color="#8FFFFF"/>
</linearGradient>
<linearGradient id="paint1_linear" x1="36.2858" y1="66.1754" x2="113.286" y2="66.1754" gradientUnits="userSpaceOnUse">
<stop stop-color="#8FFF73"/>
<stop offset="1" stop-color="#8FFFF9"/>
</linearGradient>
<linearGradient id="paint2_linear" x1="41.0983" y1="60.5814" x2="94.0367" y2="60.5814" gradientUnits="userSpaceOnUse">
<stop stop-color="#8FFF73"/>
<stop offset="1" stop-color="#8FFFF9"/>
</linearGradient>
<linearGradient id="paint3_linear" x1="53.1279" y1="73.1828" x2="108.473" y2="73.1828" gradientUnits="userSpaceOnUse">
<stop stop-color="#8FFF73"/>
<stop offset="1" stop-color="#8FFFF9"/>
</linearGradient>
<linearGradient id="paint4_linear" x1="95.2378" y1="42.5233" x2="100.051" y2="42.5233" gradientUnits="userSpaceOnUse">
<stop stop-color="#8FFF73"/>
<stop offset="1" stop-color="#8FFFF9"/>
</linearGradient>
<linearGradient id="paint5_linear" x1="73.5826" y1="39.6856" x2="75.9889" y2="39.6856" gradientUnits="userSpaceOnUse">
<stop stop-color="#8FFF73"/>
<stop offset="1" stop-color="#8FFFF9"/>
</linearGradient>
<linearGradient id="paint6_linear" x1="73.5826" y1="91.42" x2="75.9889" y2="91.42" gradientUnits="userSpaceOnUse">
<stop stop-color="#8FFF73"/>
<stop offset="1" stop-color="#8FFFF9"/>
</linearGradient>
<linearGradient id="paint7_linear" x1="45.9108" y1="65.5211" x2="51.9264" y2="65.5211" gradientUnits="userSpaceOnUse">
<stop stop-color="#8FFF73"/>
<stop offset="1" stop-color="#8FFFF9"/>
</linearGradient>
<linearGradient id="paint8_linear" x1="97.6451" y1="65.5211" x2="103.661" y2="65.5211" gradientUnits="userSpaceOnUse">
<stop stop-color="#8FFF73"/>
<stop offset="1" stop-color="#8FFFF9"/>
</linearGradient>
<linearGradient id="paint9_linear" x1="59.7466" y1="43.1469" x2="63.9578" y2="43.1469" gradientUnits="userSpaceOnUse">
<stop stop-color="#8FFF73"/>
<stop offset="1" stop-color="#8FFFF9"/>
</linearGradient>
<linearGradient id="paint10_linear" x1="85.6138" y1="87.9502" x2="89.8252" y2="87.9502" gradientUnits="userSpaceOnUse">
<stop stop-color="#8FFF73"/>
<stop offset="1" stop-color="#8FFFF9"/>
</linearGradient>
<linearGradient id="paint11_linear" x1="49.618" y1="78.4706" x2="55.1505" y2="78.4706" gradientUnits="userSpaceOnUse">
<stop stop-color="#8FFF73"/>
<stop offset="1" stop-color="#8FFFF9"/>
</linearGradient>
<linearGradient id="paint12_linear" x1="94.4211" y1="52.6034" x2="99.9536" y2="52.6034" gradientUnits="userSpaceOnUse">
<stop stop-color="#8FFF73"/>
<stop offset="1" stop-color="#8FFFF9"/>
</linearGradient>
<linearGradient id="paint13_linear" x1="85.6138" y1="43.1468" x2="89.8251" y2="43.1468" gradientUnits="userSpaceOnUse">
<stop stop-color="#8FFF73"/>
<stop offset="1" stop-color="#8FFFF9"/>
</linearGradient>
<linearGradient id="paint14_linear" x1="59.7466" y1="87.9502" x2="63.9579" y2="87.9502" gradientUnits="userSpaceOnUse">
<stop stop-color="#8FFF73"/>
<stop offset="1" stop-color="#8FFFF9"/>
</linearGradient>
<linearGradient id="paint15_linear" x1="94.4213" y1="78.4705" x2="99.9538" y2="78.4705" gradientUnits="userSpaceOnUse">
<stop stop-color="#8FFF73"/>
<stop offset="1" stop-color="#8FFFF9"/>
</linearGradient>
<linearGradient id="paint16_linear" x1="49.6179" y1="52.6033" x2="55.1504" y2="52.6033" gradientUnits="userSpaceOnUse">
<stop stop-color="#8FFF73"/>
<stop offset="1" stop-color="#8FFFF9"/>
</linearGradient>
<linearGradient id="paint17_linear" x1="71.1764" y1="63.4449" x2="84.3636" y2="63.4449" gradientUnits="userSpaceOnUse">
<stop stop-color="#8FFF73"/>
<stop offset="1" stop-color="#8FFFF9"/>
</linearGradient>
<clipPath id="clip0">
<rect width="131.841" height="131.427" fill="white" transform="translate(10.2858)"/>
</clipPath>
<clipPath id="clip1">
<rect width="77" height="77" fill="white" transform="translate(36.2858 27)"/>
</clipPath>
</defs>
</svg>
